X:3392
T:la Diaichotte Endialaie
O:england
M:6/8
R:Branle
K:G
GAB GAB | c2B A2A | GAB GAB | c2B A2z :|\
B2A G2A | B2c A2A | B2A G2A | B2c A2z | B2A G2A | B2c A2A |\
A2A A2A | A2A A2A | A2A A2A | A2A A2A | \
A2G F3 | G3 z3 |]


